packages/foundations/assets/icons/functional/images/layout/list_28.svg

<svg width="28" height="28" viewBox="0 0 28 28" fill="none" xmlns="http://www.w3.org/2000/svg">
<g clip-path="url(#clip0_185_1360)">
<path fill-rule="evenodd" clip-rule="evenodd" d="M9.625 21H22.75C23.2422 21.0002 23.625 20.6174 23.625 20.125C23.625 19.633 23.2422 19.2502 22.75 19.25H9.625C9.13281 19.2502 8.75 19.633 8.75 20.125C8.75 20.6174 9.13281 21.0002 9.625 21ZM5.25 21H6.125C6.61719 21.0002 7 20.6174 7 20.125C7 19.633 6.61719 19.2502 6.125 19.25H5.25C4.75781 19.2502 4.375 19.633 4.375 20.125C4.375 20.6174 4.75781 21.0002 5.25 21ZM22.75 14.875C23.2422 14.8751 23.625 14.4923 23.625 14C23.625 13.5079 23.2422 13.1251 22.75 13.125H9.625C9.13281 13.1251 8.75 13.5079 8.75 14C8.75 14.4923 9.13281 14.8751 9.625 14.875H22.75ZM6.125 14.875C6.61719 14.8751 7 14.4923 7 14C7 13.5079 6.61719 13.1251 6.125 13.125H5.25C4.75781 13.1251 4.375 13.5079 4.375 14C4.375 14.4923 4.75781 14.8751 5.25 14.875H6.125ZM22.75 8.74995C23.2422 8.75013 23.625 8.36732 23.625 7.87495C23.625 7.38294 23.2422 7.00013 22.75 6.99995H9.625C9.13281 7.00013 8.75 7.38294 8.75 7.87495C8.75 8.36732 9.13281 8.75013 9.625 8.74995H22.75ZM6.125 8.74995C6.61719 8.75013 7 8.36732 7 7.87495C7 7.38294 6.61719 7.00013 6.125 6.99995H5.25C4.75781 7.00013 4.375 7.38294 4.375 7.87495C4.375 8.36732 4.75781 8.75013 5.25 8.74995H6.125Z" fill="#1A1C1F"/>
</g>
<defs>
<clipPath id="clip0_185_1360">
<rect width="28" height="28" fill="white"/>
</clipPath>
</defs>
</svg>

<svg xmlns="http://www.w3.org/2000/svg" width="28" height="28" fill="none"><g clip-path="url(#a)"><path fill="#1A1C1F" fill-rule="evenodd" d="M9.625 21H22.75a.864.864 0 0 0 .875-.875.864.864 0 0 0-.875-.875H9.625a.864.864 0 0 0-.875.875c0 .492.383.875.875.875M5.25 21h.875A.864.864 0 0 0 7 20.125a.864.864 0 0 0-.875-.875H5.25a.864.864 0 0 0-.875.875c0 .492.383.875.875.875m17.5-6.125a.864.864 0 0 0 .875-.875.864.864 0 0 0-.875-.875H9.625A.864.864 0 0 0 8.75 14c0 .492.383.875.875.875zm-16.625 0A.864.864 0 0 0 7 14a.864.864 0 0 0-.875-.875H5.25a.864.864 0 0 0-.875.875c0 .492.383.875.875.875zM22.75 8.75a.864.864 0 0 0 .875-.875A.864.864 0 0 0 22.75 7H9.625a.864.864 0 0 0-.875.875c0 .492.383.875.875.875zm-16.625 0A.864.864 0 0 0 7 7.875.864.864 0 0 0 6.125 7H5.25a.864.864 0 0 0-.875.875c0 .492.383.875.875.875z" clip-rule="evenodd"/></g><defs><clipPath id="a"><path fill="#fff" d="M0 0h28v28H0z"/></clipPath></defs></svg>
